X:271
T: Der bestrafte Fhnrich (35a), S. 122f
N: T0160
O: Luxemburg
S: Singendes Volk, Esch-Alzette 1937 posth.]
N: Rammeldingen, fff Mathias Wagner, 25.2.1934
R: Liebeslieder]
M: 2/4
L: 1/16
K: G
D2 | G2G2G2GG | G2B2A2
D2 | G2G2G2GG | G2B2A2
G2 | A4A3B | A4z2
dc | B3BB2B2 | B2d2c2
B2 | A3Ac2e2 | d4
B2d2 | d3cc2B2 | d4c4 | B4z2

